X: 206
T: Wunu guandeng
L: 1/8
M: 2/4
K: A
z c c c [I:setbarnb 1]| 
c> Bc2 | 
c e c c/ B/ | 
c c/ B/ F A- | 
A3e | 
G G F F/ G/ | 
F F/ E/ C G | 
F> EC2 | 
F/ G/ F/ E/C2 | 
c> Bc2 | 
c c c c/ B/ | 
e> FA2 | 
G G F/ G/ F/ E/ | 
C EC2 | 
c c c c/ B/ | 
e> FA2 | 
G G F/ G/ F/ E/ | 
C EC2 | 
F/ G/ F/ E/C2 | 
C> B,C2 | 
c c c c/ B/ | 
e> FA2 | 
G G F/ G/ F/ E/ | 
C EC2 | 
c c c c/ B/ | 
e> FA2 | 
G G F/ G/ F/ E/ | 
C EC2 | 
B B/ G/ B G | 
B B/ G/ B B/ c/ | 
FF2G | 
BB2c | 
e2e2 | 
c> e c c | 
B A B3/ c/ | 
G> F E F | 
A CE2- | 
E4 |]

@@@ Tune index: 9080
